public/assets/icons/phone.svg

<?xml version="1.0" encoding="UTF-8"?>
<svg width="24px" height="24px" viewBox="0 0 24 24" version="1.1" xmlns="http://www.w3.org/2000/svg" xmlns:xlink="http://www.w3.org/1999/xlink">
    <!-- Generator: Sketch 58 (84663) - https://sketch.com -->
    <title>icons/phone</title>
    <desc>Created with Sketch.</desc>
    <g id="icons/phone" stroke="none" stroke-width="1" fill="none" fill-rule="evenodd">
        <path d="M1.66982578,3.2921404 L7.18873924,8.69146385 C6.44836589,9.51098492 7.22057222,10.6197173 8.08827747,11.6680414 C9.32308879,13.1686256 10.7381158,14.4885196 11.958551,15.4636054 C13.7428845,16.8853381 14.6989012,17.5370884 15.4006769,16.8805678 L15.4776349,16.8022099 L20.8589477,22.0769747 C20.0174277,23.0440416 15.025812,24.984056 6.96950247,16.8888129 C-0.676572453,9.21268566 0.918156846,4.328169 1.66982578,3.2921404 Z M18.4235562,14.672267 L18.5110092,14.7461903 L22.7678993,18.8560912 C23.0573483,19.1613846 23.0758605,19.625246 22.8246223,19.9779676 L22.7494156,20.0712062 L21.2614808,21.6583935 L15.8745202,16.3686603 L17.3239473,14.7830768 C17.6072779,14.4719029 18.088634,14.4275545 18.4235562,14.672267 Z M3.42731399,1.26979975 C3.73588846,0.929802752 4.17795605,0.904677187 4.5096351,1.23130953 L4.5096351,1.23130953 L8.6802681,5.45988858 C9.08434149,5.88274648 9.50176419,6.35585552 9.23323766,6.67339989 L9.23323766,6.67339989 L9.23323766,6.67821116 L7.67085477,8.25898338 L2.02923032,2.85484866 Z" id="Combined-Shape" fill="#333333"></path>
    </g>
</svg>

<svg width="24" height="24" xmlns="http://www.w3.org/2000/svg"><path d="M1.67 3.292l5.519 5.4c-.74.819.032 1.928.9 2.976 1.234 1.5 2.65 2.82 3.87 3.796 1.784 1.421 2.74 2.073 3.442 1.417l.077-.079 5.38 5.275c-.84.967-5.832 2.907-13.888-5.188C-.677 9.213.918 4.329 1.67 3.292zm16.754 11.38l.087.074 4.257 4.11c.29.305.308.77.057 1.122l-.076.093-1.488 1.587-5.386-5.29 1.449-1.585a.834.834 0 011.1-.11zM3.427 1.27c.309-.34.751-.365 1.083-.039L8.68 5.46c.404.423.822.896.553 1.213v.005L7.671 8.26 2.029 2.855z" fill="#333" fill-rule="evenodd"/></svg>
